X: 1
T: String Quartet in E\b Major opus 76 no 6 mvt 2
C: Franz Joseph Haydn
%%abc-version 2.0
%%abcx-abcm2ps-target-version 5.9.1 (29 Sep 2008)
%%abc-creator hum2abc beta
%%abcx-conversion-date 2021/02/14 14:38:13
%%abc-copyright Copyright (c) 1994, 2000 Center for Computer Assisted Research in the Humanities
%%abc-edited-by Frances Bennion
%%abcx-initial-encoding-date 1997/04/15
%%gracespace 0 6 6
%%humdrum-veritas 1603960863
%%humdrum-veritas-data 2097682620
%%linebreak <none>
%%barnumbers 0
L: 1/8
M: 3/4
N: Derived from op76n6-02.krn
Q: "Fantasia: Adagio"
%%staves [1 2 3 4]
V: 1
V: 2
V: 3 clef=alto
V: 4 clef=bass
K: C
[V:1]B2 ^A2 B2 [I:setbarnb2] |
[V:2]^F6- |
[V:3]^D2 E2 D2 |
[V:4]B,2 ^C2 B,2 |
[V:1]^c>^d e2 d2 |
[V:2]F6 |
[V:3]^C4 B,2- |
[V:4]^A,4 B,2 |
[V:1]^d2 ^c2 B2 |
[V:2]^G6- |
[V:3]B,>^B, ^C4- |
[V:4]E,4 ^E,2 |
[V:1]B2 ^Az3 |
[V:2]G2 ^Fz3 |
[V:3]C2 >^G2 ^FE |
[V:4]^F,2 >E2 ^D^C |
[V:1]B2 ^A2 B2 |
[V:2]^F6- |
[V:3]^D2 E2 D2 |
[V:4]B,2 ^C2 B,2 |
[V:1]^c>^d e2 d2 |
[V:2]F2 ^c2 B2 |
[V:3]^C>B, ^A,2 B,2 |
[V:4]^A,>^G, ^F,2 G,2 |
[V:1](3^ce^g B2 ^A2 |
[V:2]^G2 ^F2 E3/^C/ |
[V:3]^C2 ^D2 E2 |
[V:4]E,2 ^F,4 |
[V:1]^c2 Bz3 |
[V:2]^A,2 B,z3 |
[V:3]E2 ^Dz3 |
[V:4]B,,2 >B,,2 ^D,^F, |
[V:1]B2 ^A2 B2 |
[V:2]^F6- |
[V:3]^D2 E2 D2 |
[V:4]B,2 ^C2 B,2 |
[V:1]^c>^d e2 d2 |
[V:2]F6 |
[V:3]^C4 B,2- |
[V:4]^A,4 B,2 |
[V:1]^d2 ^c2 B2 |
[V:2]^G6- |
[V:3]B,>^B, ^C4- |
[V:4]E,4 ^E,2 |
[V:1]B2 ^Az3 |
[V:2]G2 ^Fz3 |
[V:3]C2 >^G2 ^FE |
[V:4]^F,2 >E2 ^D^C |
[V:1]B2 ^A2 B2 |
[V:2]^F6 |
[V:3]^D2 E2 D2 |
[V:4]B,2 ^C2 B,2 |
[V:1]^c>^d e4- |
[V:2]G6 |
[V:3]E>^D ^C4- |
[V:4]^A,4 =A,2 |
[V:1]e>^f ^g2 ^B2 |
[V:2]^G4 ^D2 |
[V:3]C>^D E2 ^F2 |
[V:4]^G,6 |
[V:1]^c^C ^DE ^F^G |
[V:2]E2 z4 |
[V:3]E2 z4 |
[V:4]^C,2 z4 |
[V:1]A^D E^F ^GA |
[V:2]z6 |
[V:3]z6 |
[V:4]z6 |
[V:1]B^E ^F^G AB |
[V:2]z6 |
[V:3]z6 |
[V:4]z6 |
[V:1]^c^G AB c^d |
[V:2]z6 |
[V:3]z6 |
[V:4]z6 |
[V:1]e2 ^d2 e2 |
[V:2]B6- |
[V:3]^G2 A2 G2 |
[V:4]E2 ^F2 E2 |
[V:1]^f>^g a2 g2 |
[V:2]B6 |
[V:3]^F4 E2- |
[V:4]^D4 E2 |
[V:1]^g2 ^f2 e2 |
[V:2]^c6- |
[V:3]E>F ^F4- |
[V:4]A,4 ^A,2 |
[V:1]e2 ^dz3 |
[V:2]c2 B^c BA |
[V:3]F2 >A2 ^G^F |
[V:4]B,4 z2 |
[V:1]e2 ^d2 e2 |
[V:2]G2 A2 G2 |
[V:3][E2B,2] C2 B,2 |
[V:4]E,6 |
[V:1]^f>g a4 |
[V:2]A>B c2 d2- |
[V:3]C>B, ^F,2 ^F2 |
[V:4]D,4 C2 |
[V:1]g>b d'z [^fDA]z |
[V:2]d2 Bz [cD]z |
[V:3]G2 >z2 [AD]z |
[V:4]B,>G, D,z D,z |
[V:1][D2g2B2] z2 z2 |
[V:2][G,2B2D2] z4 |
[V:3][G,2G2] z4 |
[V:4]G,G,, ^F,,G,, A,,B,, |
[V:1]z6 |
[V:2]z6 |
[V:3]z6 |
[V:4]C,A,, ^G,,A,, B,,C, |
[V:1]z6 |
[V:2]z6 |
[V:3]z6 |
[V:4]D,B,, C,D, E,^F, |
[V:1]z6 |
[V:2]z6 |
[V:3]z6 |
[V:4]G,D, E,^F, G,A, |
[V:1]_B2 A2 B2 |
[V:2]F6- |
[V:3]D2 _E2 D2 |
[V:4]_B,2 C2 B,2 |
[V:1]c>d _e2 d2 |
[V:2]F6 |
[V:3]C4 _B,2- |
[V:4]A,4 _B,2 |
[V:1]d2 c2 _B2 |
[V:2]G6- |
[V:3]B,>B, C4- |
[V:4]_E,4 =E,2 |
[V:1]_B2 AG FA |
[V:2]G2 F2 z2 |
[V:3]C2 z4 |
[V:4]F,2 >_E,2 D,C, |
[V:1]_B2 A2 B2 |
[V:2]F6 |
[V:3]^C2 ^D2 C2 |
[V:4]_B,,2 C,2 _D,2 |
[V:1]_c>_d _e4 |
[V:2]^F6 |
[V:3]B,6- |
[V:4]_E,6 |
[V:1]^c>^d e4 |
[V:2]^G>^F E2 ^A2 |
[V:3]B,>^A, ^G,2 ^C2 |
[V:4]E,6 |
[V:1](3^de^f B2 ^A2 |
[V:2]B2 ^F2 E2 |
[V:3]B,2 ^D2 ^C2 |
[V:4]^F,6 |
[V:1]B2 B2 B2 |
[V:2]^DB, ^CD E^G |
[V:3]B,2 z4 |
[V:4]B,,2 z4 |
[V:1]B2 ^A^G A^B |
[V:2]F2 ^Fz3 |
[V:3]z6 |
[V:4]z6 |
[V:1]^c2 c2 c2 |
[V:2]z^C ^DE ^FA |
[V:3]z6 |
[V:4]z6 |
[V:1]^c2 ^B^A B^d |
[V:2]^^F2 ^Gz3 |
[V:3]z6 |
[V:4]z6 |
[V:1]e2 e2 e2 |
[V:2]^c2 c2 c2- |
[V:3]z6 |
[V:4]z^C, ^D,E, ^F,A, |
[V:1]^d6- |
[V:2]c2 B^A BA |
[V:3]z^A, ^D^C B,2- |
[V:4]^^F,4 ^G,^F, |
[V:1]d2 ^c^B cc |
[V:2]^G4 ^AG |
[V:3]B,B, E^D ^CB, |
[V:4]E,6 |
[V:1]^c4 z2 |
[V:2]^^F4 z2 |
[V:3]^A,4 z2 |
[V:4]E,,4 z2 |
[V:1]B4 z2 |
[V:2]^G4 z2 |
[V:3]D4 z2 |
[V:4]F,,4 z2 |
[V:1]_B,4 z2 |
[V:2]G4 z2 |
[V:3]_D4 z2 |
[V:4]_E,,4 z2 |
[V:1]_A2 G2 A2 |
[V:2]_E6- |
[V:3]C2 _D2 C2 |
[V:4]_A,,2 _B,,2 A,,2 |
[V:1]_B>c _d2 c2 |
[V:2]E6 |
[V:3]_B,4 _A,2- |
[V:4]G,,4 _A,,2 |
[V:1]c2 _B2 _A2 |
[V:2]F6- |
[V:3]A,>A, _B,4- |
[V:4]_D,4 =D,2 |
[V:1]_A2 G2 z2 |
[V:2]F2 _E2 z2 |
[V:3]B,2 >F2 _E_D |
[V:4]_E,2 >_D2 C_B, |
[V:1]_A2 G2 A2 |
[V:2]_E6- |
[V:3]C2 _D2 C2 |
[V:4]_A,2 _B,2 A,2 |
[V:1]_B>c _d2 c2 |
[V:2]E2 _B2 _A2 |
[V:3]_B,>_A, G,2 A,2 |
[V:4]G,>F, _E,2 F,2 |
[V:1](3c/_B/_d/(3f/d/B/ _A2 G2 |
[V:2]F2 _E2 ^C3/_B,/ |
[V:3]_B,2 C2 _D2 |
[V:4]_D,2 _E,4 |
[V:1]_A2 z2 z2 |
[V:2]_A,2 z4 |
[V:3]C2 z4 |
[V:4]_A,_A,, G,,A,, _B,,C, |
[V:1]z6 |
[V:2]z6 |
[V:3]z6 |
[V:4]_D,_B,, A,,B,, C,D, |
[V:1]z6 |
[V:2]z6 |
[V:3]z6 |
[V:4]_E,C, _D,E, F,G, |
[V:1]z6 |
[V:2]z6 |
[V:3]z6 |
[V:4]_A,_E, F,G, A,_B, |
[V:1]B2 ^A2 B2 |
[V:2]^F6- |
[V:3]^D2 E2 D2 |
[V:4]B,2 ^C2 B,2 |
[V:1]^c>^d e2 d2 |
[V:2]F6 |
[V:3]^C4 B,2- |
[V:4]^A,4 B,2 |
[V:1]^d2 ^c2 B2 |
[V:2]^G6- |
[V:3]B,>^B, ^C4- |
[V:4]E,4 ^E,2 |
[V:1]B2 ^A2 z2 |
[V:2]G2 ^F2 z2 |
[V:3]C2 >^G2 ^FE |
[V:4]^F,2 >E2 ^D^C |
[V:1]z6 |
[V:2]B2 ^A2 B2 |
[V:3]^D^G ^FE DB, |
[V:4]B,2 z4 |
[V:1]z6 |
[V:2]^c>^d e2 dc |
[V:3]^A,^F ^CA, B,A, |
[V:4]z6 |
[V:1]^f2 ^e2 f2 |
[V:2]B2 >^c2 B^A |
[V:3]^G,^D ^G2 ^F2 |
[V:4]z6 |
[V:1]^g>^a b2 a^c' |
[V:2]^G^F ^EG Fe- |
[V:3]^E^D ^CE ^F^A, |
[V:4]z6 |
[V:1]^f^g2 f e^d- |
[V:2]e^d ^c2 ^F2 |
[V:3]B,2 z4 |
[V:4]B,,2 ^A,,2 B,,2 |
[V:1]d^c2 ^B c^d |
[V:2]E>^F ^G2 F2 |
[V:3]z6 |
[V:4]^C,>^D, E,2 D,2 |
[V:1]e3 ^f/^g/ fe- |
[V:2]E^G ^c^A Bc- |
[V:3]z6 |
[V:4]^C,B,, ^A,,^F,, ^G,,A,, |
[V:1]e^d/^c/ d2 c2 |
[V:2]cB/^A/ B2 z2 |
[V:3]^F2 ^E2 F2 |
[V:4]B,,2 B,2 ^A,^G,/^F,/ |
[V:1]^c6- |
[V:2]z6 |
[V:3]^G>^A B2 AG |
[V:4]^E,^D, ^C,E, ^F,=E, |
[V:1]c>^d ee d^c |
[V:2]z6 |
[V:3]^^F2 >F2 ^G^A |
[V:4]^D,2 >D,2 ^E,^^F, |
[V:1]B2 z2 z2 |
[V:2]^G2 ^^F2 G2 |
[V:3]^GE ^D^C B,^G, |
[V:4]^G,2 z4 |
[V:1]e2 ^d2 e2 |
[V:2]^A>B ^c2 B2 |
[V:3]^^F,2 >F,2 ^G,^G |
[V:4]z6 |
[V:1]^f>^g a2 g2- |
[V:2]A^G ^F^d ed |
[V:3]^FE ^DB, ^CB, |
[V:4]z6 |
[V:1]g^f2 ^e f=e- |
[V:2]^c2 B2 c2 |
[V:3]A,^C D2 C2- |
[V:4]A,,2 ^G,,2 A,,3/^A,,/ |
[V:1]e^d/^c/ B^A B=A |
[V:2]^F6 |
[V:3]CB,/^A,/ B,2 z2 |
[V:4]B,,>^C, ^D,4 |
[V:1]^G2 z2 z2 |
[V:2]B,2 z4 |
[V:3]E2 ^D2 E2 |
[V:4]E,^C B,A, ^G,E, |
[V:1]z6 |
[V:2]z6 |
[V:3]^F>^G A2 GF |
[V:4]^D,B, ^F,D, E,D, |
[V:1]z6 |
[V:2]B2 ^A2 B2 |
[V:3]E2 >^F2 E^D |
[V:4]^C,^G, ^C2 B,2 |
[V:1]z6 |
[V:2]^c>^d e2 d2 |
[V:3]^CB, ^A,^F2 ^D |
[V:4]^A,^G, ^F,A, B,2 |
[V:1]z2 ^g4 |
[V:2]^d>e ^f2 e2- |
[V:3]^B,^G ^DB, ^C^c- |
[V:4]^G,4 ^C,2 |
[V:1]^^f2 ^g4 |
[V:2]e^d/^c/ dc d^g |
[V:3]cB/^A/ BA Be |
[V:4]z6 |
[V:1]^a>b ^c'2 b2 |
[V:2]^g2 ^^f2 gb |
[V:3]^cB ^A^D ^G^F |
[V:4]z6 |
[V:1]^c'>^d' e'2 d'2- |
[V:2]b2 ^a2 ba |
[V:3]E^D ^C^F B,D |
[V:4]z6 |
[V:1]d'^g ^c'2 b2 |
[V:2]^g6 |
[V:3]E>^D ^C4- |
[V:4]^C,>^D, E,D, E,^E, |
[V:1]b2 ^a^f f^^f |
[V:2]^f2 zf fe |
[V:3]C2 >^D2 D^C |
[V:4]^F,6- |
[V:1]^ga/g/ g4- |
[V:2]^d2 ^c2 d2 |
[V:3]^B,2 ^A,2 B,2 |
[V:4]F,6 |
[V:1](3:2:2g4- g/g|
[V:2]e>^d ^cd e=d |
[V:3]^C>^D ED CB, |
[V:4]E,6- |
[V:1]^fg/f/ f4- |
[V:2]^c2 B2 c2 |
[V:3]^A,2 ^G,2 A,2 |
[V:4]E,6 |
[V:1]f6- |
[V:2]^d>^c Bc dc |
[V:3]B,>^C ^DC B,^A, |
[V:4]^D,6 |
[V:1]fB e2 e2 |
[V:2]B2 >^A2 ^GA/B/ |
[V:3]^G,3 ^A,/B,/ ^CC |
[V:4]E,6 |
[V:1]e4 ^d2 |
[V:2]^A4 B2 |
[V:3]^C4 B,2 |
[V:4]^F,2 ^^F,2 ^G,2 |
[V:1]^g>^a b/a/g/^f/ e/^d/f/e/ |
[V:2]B2 z4 |
[V:3]E2 z4 |
[V:4]E,2 z4 |
[V:1]^g/^f/a/g/ f/e/a/g/ f/e/b/a/ |
[V:2]^c4 z2 |
[V:3]^G4 z2 |
[V:4]E4 z2 |
[V:1]^g/^f/b/a/ g/f/b/a/ g/f/a/g/ |
[V:2]^B4 z2 |
[V:3]^G4 z2 |
[V:4]^D4 z2 |
[V:1]^f/e/a/^g/ f/e/^d/^c/ ^B/c/e/g/ |
[V:2]^c4 z2 |
[V:3]^G4 z2 |
[V:4]E4 z2 |
[V:1]B4 ^A3/B/ |
[V:2]z^G/^F/ E/^D/G/F/ E/D/E/E/ |
[V:3]^DE/D/ ^C/B,/E/D/ C/B,/C/C/ |
[V:4]^F,6 |
[V:1]B4 ^c^d |
[V:2]^D4 E^F |
[V:3]B,B,/^A,/ ^G,/^F,/B,/A,/ G,/F,/E,/^D,/ |
[V:4]z^G,/^F,/ E,/^D,/G,/F,/ E,/D,/^C,/B,,/ |
[V:1]ea/^g/ ^f/e/g/f/ e/^d/^c/B/ |
[V:2]^F6- |
[V:3]^C,2 ^C2 B,2 |
[V:4]^A,,4 B,,2 |
[V:1]^A/^G/^F/E/ ^DF EA |
[V:2]F/E/^D/^C/ B,D CE |
[V:3]E,2 ^F,2 z2 |
[V:4]E,2 ^F,2 ^F,,2 |
[V:1]B4 ^c^d |
[V:2]^D4 E^F |
[V:3]zB,/^A,/ ^G,/^F,/B,/A,/ G,/F,/E,/^D,/ |
[V:4]z^G,/^F,/ E,/^D,/G,/F,/ E,/D,/^C,/B,,/ |
[V:1]ea/^g/ ^f/e/g/f/ e/^d/^c/B/ |
[V:2]^F6- |
[V:3]^C,2 ^C2 B,2 |
[V:4]^A,,4 B,,2 |
[V:1]^A/^G/^F/E/ ^DF EA |
[V:2]F/E/^D/^C/ B,D CE |
[V:3]E,2 ^F,2 z2 |
[V:4]E,2 ^F,2 F,2 |
[V:1]B2 ^A2 B2 |
[V:2]^F2 G2 F2 |
[V:3]^D2 E2 D2 |
[V:4]B,,6- |
[V:1]^c>d e2 ^A2 |
[V:2]G/^F/A/G/ F/E/A/G/ F/E/G/E/ |
[V:3][^A,4E4] ^C2 |
[V:4]B,,6- |
[V:1]B2 ^A2 B2 |
[V:2]^F2 G2 F2 |
[V:3]^D2 E2 D2 |
[V:4]B,,6- |
[V:1]^c>d e2 ^A2 |
[V:2]G/^F/A/G/ F/E/A/G/ F/E/G/E/ |
[V:3][E4^A,4] ^C2 |
[V:4]B,,6- |
[V:1]B2 ^D2 D2 |
[V:2]^D2 B,2 B,2 |
[V:3]B,^G,/^F,/ E,/^D,/G,/F,/ E,/D,/G,/F,/ |
[V:4]B,,2 B,,2 B,,2 |
[V:1]^D6- |
[V:2]B,6- |
[V:3]^F,6- |
[V:4]B,,/^A,,/B,,/^F,,/ B,,/A,,/B,,/F,,/ B,,/A,,/B,,/F,,/ |
[V:1]D6 |]
[V:2]B,6 |]
[V:3]F,6 |]
[V:4]B,,6 |]

